X:307
T:Two Birds in the Tree (reel) 
B:CRE2.232 (DhÃÂÃÂÃÂÃÂ¡ ÃÂÃÂÃÂ¢ÃÂÃÂ°an ar an gCrann)
F:file ID: cre.2/307two_b
Q:180
L:1/8
M:4/4
R:reel
K:Am
(3EFG|A2 BA eAAA|(3Bcd AB GBAG|EAAA BAGA|(3BAB Bd gedB|
A2 BA eAAA|(3Bcd AB GBAG|EAAA BAGA|(3BAB dB A2:|
K:G
dc|(3BAG Bd g2 ga|(3bag (3agf gedc|(3BAG Bd gfga|\
(3bag (3agf g2 ga|
bagb agef|gedB AE E2|GABd (3edB ec|dBAB G2:|

%%%

